Apricity Icons/apps/scalable/DeSmuME.svg

<svg version="1.1" viewBox="0 0 48 48" xmlns="http://www.w3.org/2000/svg">
 <defs>
  <linearGradient id="bg" x1="1" x2="47" gradientTransform="matrix(0 -1 1 0 -1.5e-6 48)" gradientUnits="userSpaceOnUse">
   <stop style="stop-color:#e3544d" offset="0"/>
   <stop style="stop-color:#e6645f" offset="1"/>
  </linearGradient>
 </defs>
 <path d="m36.31 5c5.859 4.062 9.688 10.831 9.688 18.5 0 12.426-10.07 22.5-22.5 22.5-7.669 0-14.438-3.828-18.5-9.688 1.037 1.822 2.306 3.499 3.781 4.969 4.085 3.712 9.514 5.969 15.469 5.969 12.703 0 23-10.298 23-23 0-5.954-2.256-11.384-5.969-15.469-1.469-1.475-3.147-2.744-4.969-3.781zm4.969 3.781c3.854 4.113 6.219 9.637 6.219 15.719 0 12.703-10.297 23-23 23-6.081 0-11.606-2.364-15.719-6.219 4.16 4.144 9.883 6.719 16.219 6.719 12.703 0 23-10.298 23-23 0-6.335-2.575-12.06-6.719-16.219z" style="opacity:.05"/>
 <path d="m41.28 8.781c3.712 4.085 5.969 9.514 5.969 15.469 0 12.703-10.297 23-23 23-5.954 0-11.384-2.256-15.469-5.969 4.113 3.854 9.637 6.219 15.719 6.219 12.703 0 23-10.298 23-23 0-6.081-2.364-11.606-6.219-15.719z" style="opacity:.1"/>
 <path d="m31.25 2.375c8.615 3.154 14.75 11.417 14.75 21.13 0 12.426-10.07 22.5-22.5 22.5-9.708 0-17.971-6.135-21.12-14.75a23 23 0 0 0 44.875-7 23 23 0 0 0-16-21.875z" style="opacity:.2"/>
 <path d="m24 1c12.703 0 23 10.297 23 23s-10.297 23-23 23-23-10.297-23-23 10.297-23 23-23z" style="fill:url(#bg)"/>
 <g transform="translate(1,1)">
  <g style="opacity:.1">
   <path d="m14 12h20c1.105 0 2 0.895 2 2v20c0 1.105-0.895 2-2 2h-20c-1.105 0-2-0.895-2-2v-20c0-1.105 0.895-2 2-2"/>
  </g>
 </g>
 <path d="m14 12h20c1.105 0 2 0.895 2 2v20c0 1.105-0.895 2-2 2h-20c-1.105 0-2-0.895-2-2v-20c0-1.105 0.895-2 2-2" style="fill:#f9f9f9"/>
 <path d="m12.434 23h23.13c0.238 0 0.434 0.191 0.434 0.434v1.133c0 0.238-0.188 0.43-0.434 0.43h-23.13c-0.238 0-0.434-0.191-0.434-0.43v-1.133c0-0.242 0.195-0.434 0.434-0.434" style="fill:#695353"/>
 <path d="m15 29v1h-1v1h1v0.98828h0.99609v-0.98828h1.0039v-1h-1.0039v-1h-0.99609z" style="fill:#695353"/>
 <path d="m33 29.5c0 0.277-0.223 0.5-0.5 0.5s-0.5-0.223-0.5-0.5 0.223-0.5 0.5-0.5 0.5 0.223 0.5 0.5" style="fill:#695353"/>
 <path d="m34 30.5c0 0.277-0.223 0.5-0.5 0.5s-0.5-0.223-0.5-0.5 0.223-0.5 0.5-0.5 0.5 0.223 0.5 0.5" style="fill:#695353"/>
 <path d="m32 30.5c0 0.277-0.223 0.5-0.5 0.5s-0.5-0.223-0.5-0.5 0.223-0.5 0.5-0.5 0.5 0.223 0.5 0.5" style="fill:#695353"/>
 <path d="m33 31.5c0 0.277-0.223 0.5-0.5 0.5s-0.5-0.223-0.5-0.5 0.223-0.5 0.5-0.5 0.5 0.223 0.5 0.5" style="fill:#695353"/>
 <path d="m31 26h2v1h-2m0-1" style="fill:#695353"/>
 <path d="m17 14h14v8h-14m0-8" style="fill:#695353"/>
 <path d="m18 26h12v8h-12m0-8" style="fill:#695353"/>
 <path d="m15 26h1.996v1h-1.996m0-1" style="fill:#695353"/>
 <path d="m33 16.5c0 0.277-0.223 0.5-0.5 0.5s-0.5-0.223-0.5-0.5 0.223-0.5 0.5-0.5 0.5 0.223 0.5 0.5" style="fill:#695353"/>
 <path d="m34 16.5c0 0.277-0.223 0.5-0.5 0.5s-0.5-0.223-0.5-0.5 0.223-0.5 0.5-0.5 0.5 0.223 0.5 0.5" style="fill:#695353"/>
 <path d="m33 17.5c0 0.277-0.223 0.5-0.5 0.5s-0.5-0.223-0.5-0.5 0.223-0.5 0.5-0.5 0.5 0.223 0.5 0.5" style="fill:#695353"/>
 <path d="m34 17.5c0 0.277-0.223 0.5-0.5 0.5s-0.5-0.223-0.5-0.5 0.223-0.5 0.5-0.5 0.5 0.223 0.5 0.5" style="fill:#695353"/>
 <path d="m33 18.5c0 0.277-0.223 0.5-0.5 0.5s-0.5-0.223-0.5-0.5 0.223-0.5 0.5-0.5 0.5 0.223 0.5 0.5" style="fill:#695353"/>
 <path d="m34 18.5c0 0.277-0.223 0.5-0.5 0.5s-0.5-0.223-0.5-0.5 0.223-0.5 0.5-0.5 0.5 0.223 0.5 0.5" style="fill:#695353"/>
 <path d="m15 16.5c0 0.277-0.223 0.5-0.5 0.5s-0.5-0.223-0.5-0.5 0.223-0.5 0.5-0.5 0.5 0.223 0.5 0.5" style="fill:#695353"/>
 <path d="m16 16.5c0 0.277-0.223 0.5-0.5 0.5s-0.5-0.223-0.5-0.5 0.223-0.5 0.5-0.5 0.5 0.223 0.5 0.5" style="fill:#695353"/>
 <path d="m15 17.5c0 0.277-0.223 0.5-0.5 0.5s-0.5-0.223-0.5-0.5 0.223-0.5 0.5-0.5 0.5 0.223 0.5 0.5" style="fill:#695353"/>
 <path d="m16 17.5c0 0.277-0.223 0.5-0.5 0.5s-0.5-0.223-0.5-0.5 0.223-0.5 0.5-0.5 0.5 0.223 0.5 0.5" style="fill:#695353"/>
 <path d="m15 18.5c0 0.277-0.223 0.5-0.5 0.5s-0.5-0.223-0.5-0.5 0.223-0.5 0.5-0.5 0.5 0.223 0.5 0.5" style="fill:#695353"/>
 <path d="m16 18.5c0 0.277-0.223 0.5-0.5 0.5s-0.5-0.223-0.5-0.5 0.223-0.5 0.5-0.5 0.5 0.223 0.5 0.5" style="fill:#695353"/>
 <path d="m40.03 7.531c3.712 4.084 5.969 9.514 5.969 15.469 0 12.703-10.297 23-23 23-5.954 0-11.384-2.256-15.469-5.969 4.178 4.291 10.01 6.969 16.469 6.969 12.703 0 23-10.298 23-23 0-6.462-2.677-12.291-6.969-16.469z" style="opacity:.1"/>
</svg>

<svg xmlns="http://www.w3.org/2000/svg" viewBox="0 0 48 48">
 <defs>
  <linearGradient id="linearGradient3764" x1="1" x2="47" gradientUnits="userSpaceOnUse" gradientTransform="matrix(0,-1,1,0,-1.5e-6,47.999998)">
   <stop style="stop-color:#e3544d;stop-opacity:1"/>
   <stop offset="1" style="stop-color:#e6645f;stop-opacity:1"/>
  </linearGradient>
 </defs>
 <g>
  <path d="m 36.31 5 c 5.859 4.062 9.688 10.831 9.688 18.5 c 0 12.426 -10.07 22.5 -22.5 22.5 c -7.669 0 -14.438 -3.828 -18.5 -9.688 c 1.037 1.822 2.306 3.499 3.781 4.969 c 4.085 3.712 9.514 5.969 15.469 5.969 c 12.703 0 23 -10.298 23 -23 c 0 -5.954 -2.256 -11.384 -5.969 -15.469 c -1.469 -1.475 -3.147 -2.744 -4.969 -3.781 z m 4.969 3.781 c 3.854 4.113 6.219 9.637 6.219 15.719 c 0 12.703 -10.297 23 -23 23 c -6.081 0 -11.606 -2.364 -15.719 -6.219 c 4.16 4.144 9.883 6.719 16.219 6.719 c 12.703 0 23 -10.298 23 -23 c 0 -6.335 -2.575 -12.06 -6.719 -16.219 z" style="opacity:0.05"/>
  <path d="m 41.28 8.781 c 3.712 4.085 5.969 9.514 5.969 15.469 c 0 12.703 -10.297 23 -23 23 c -5.954 0 -11.384 -2.256 -15.469 -5.969 c 4.113 3.854 9.637 6.219 15.719 6.219 c 12.703 0 23 -10.298 23 -23 c 0 -6.081 -2.364 -11.606 -6.219 -15.719 z" style="opacity:0.1"/>
  <path d="m 31.25 2.375 c 8.615 3.154 14.75 11.417 14.75 21.13 c 0 12.426 -10.07 22.5 -22.5 22.5 c -9.708 0 -17.971 -6.135 -21.12 -14.75 a 23 23 0 0 0 44.875 -7 a 23 23 0 0 0 -16 -21.875 z" style="opacity:0.2"/>
 </g>
 <g>
  <path d="m 24 1 c 12.703 0 23 10.297 23 23 c 0 12.703 -10.297 23 -23 23 -12.703 0 -23 -10.297 -23 -23 0 -12.703 10.297 -23 23 -23 z" style="fill:url(#linearGradient3764);fill-opacity:1"/>
 </g>
 <g>
  <g>
   <g transform="translate(1,1)">
    <g style="opacity:0.1">
     <!-- color: #e6645f -->
     <g>
      <path d="m 14 12 l 20 0 c 1.105 0 2 0.895 2 2 l 0 20 c 0 1.105 -0.895 2 -2 2 l -20 0 c -1.105 0 -2 -0.895 -2 -2 l 0 -20 c 0 -1.105 0.895 -2 2 -2 m 0 0" style="fill:#000;fill-opacity:1;stroke:none;fill-rule:nonzero"/>
     </g>
    </g>
   </g>
  </g>
 </g>
 <g>
  <g>
   <!-- color: #e6645f -->
   <g>
    <path d="m 14 12 20 0 c 1.105 0 2 0.895 2 2 l 0 20 c 0 1.105 -0.895 2 -2 2 l -20 0 c -1.105 0 -2 -0.895 -2 -2 l 0 -20 c 0 -1.105 0.895 -2 2 -2 m 0 0" style="fill:#f9f9f9;fill-opacity:1;stroke:none;fill-rule:nonzero"/>
    <path d="m 12.434,23 23.13,0 c 0.238,0 0.434,0.191 0.434,0.434 l 0,1.133 c 0,0.238 -0.188,0.43 -0.434,0.43 l -23.13,0 C 12.196,24.997 12,24.806 12,24.567 l 0,-1.133 C 12,23.192 12.195,23 12.434,23 m 0,0" style="fill:#695353;fill-opacity:1;stroke:none;fill-rule:nonzero"/>
    <path d="m 15,29 0.996,0 0,2.988 -0.996,0 M 15,29" style="fill:#695353;fill-opacity:1;stroke:none;fill-rule:nonzero"/>
    <path d="m 14 30 3 0 0 1 -3 0 m 0 -1" style="fill:#695353;fill-opacity:1;stroke:none;fill-rule:nonzero"/>
    <path d="M 33,29.5 C 33,29.777 32.777,30 32.5,30 32.223,30 32,29.777 32,29.5 32,29.223 32.223,29 32.5,29 c 0.277,0 0.5,0.223 0.5,0.5 m 0,0" style="fill:#695353;fill-opacity:1;stroke:none;fill-rule:nonzero"/>
    <path d="M 34,30.5 C 34,30.777 33.777,31 33.5,31 33.223,31 33,30.777 33,30.5 33,30.223 33.223,30 33.5,30 c 0.277,0 0.5,0.223 0.5,0.5 m 0,0" style="fill:#695353;fill-opacity:1;stroke:none;fill-rule:nonzero"/>
    <path d="M 32,30.5 C 32,30.777 31.777,31 31.5,31 31.223,31 31,30.777 31,30.5 31,30.223 31.223,30 31.5,30 c 0.277,0 0.5,0.223 0.5,0.5 m 0,0" style="fill:#695353;fill-opacity:1;stroke:none;fill-rule:nonzero"/>
    <path d="M 33,31.5 C 33,31.777 32.777,32 32.5,32 32.223,32 32,31.777 32,31.5 32,31.223 32.223,31 32.5,31 c 0.277,0 0.5,0.223 0.5,0.5 m 0,0" style="fill:#695353;fill-opacity:1;stroke:none;fill-rule:nonzero"/>
    <path d="m 31 26 2 0 0 1 -2 0 m 0 -1" style="fill:#695353;fill-opacity:1;stroke:none;fill-rule:nonzero"/>
    <path d="m 17 14 14 0 0 8 -14 0 m 0 -8" style="fill:#695353;fill-opacity:1;stroke:none;fill-rule:nonzero"/>
    <path d="m 18 26 12 0 0 8 -12 0 m 0 -8" style="fill:#695353;fill-opacity:1;stroke:none;fill-rule:nonzero"/>
    <path d="m 15,26 1.996,0 0,1 L 15,27 m 0,-1" style="fill:#695353;fill-opacity:1;stroke:none;fill-rule:nonzero"/>
    <path d="M 33,16.5 C 33,16.777 32.777,17 32.5,17 32.223,17 32,16.777 32,16.5 32,16.223 32.223,16 32.5,16 c 0.277,0 0.5,0.223 0.5,0.5 m 0,0" style="fill:#695353;fill-opacity:1;stroke:none;fill-rule:nonzero"/>
    <path d="M 34,16.5 C 34,16.777 33.777,17 33.5,17 33.223,17 33,16.777 33,16.5 33,16.223 33.223,16 33.5,16 c 0.277,0 0.5,0.223 0.5,0.5 m 0,0" style="fill:#695353;fill-opacity:1;stroke:none;fill-rule:nonzero"/>
    <path d="M 33,17.5 C 33,17.777 32.777,18 32.5,18 32.223,18 32,17.777 32,17.5 32,17.223 32.223,17 32.5,17 c 0.277,0 0.5,0.223 0.5,0.5 m 0,0" style="fill:#695353;fill-opacity:1;stroke:none;fill-rule:nonzero"/>
    <path d="M 34,17.5 C 34,17.777 33.777,18 33.5,18 33.223,18 33,17.777 33,17.5 33,17.223 33.223,17 33.5,17 c 0.277,0 0.5,0.223 0.5,0.5 m 0,0" style="fill:#695353;fill-opacity:1;stroke:none;fill-rule:nonzero"/>
    <path d="M 33,18.5 C 33,18.777 32.777,19 32.5,19 32.223,19 32,18.777 32,18.5 32,18.223 32.223,18 32.5,18 c 0.277,0 0.5,0.223 0.5,0.5 m 0,0" style="fill:#695353;fill-opacity:1;stroke:none;fill-rule:nonzero"/>
    <path d="M 34,18.5 C 34,18.777 33.777,19 33.5,19 33.223,19 33,18.777 33,18.5 33,18.223 33.223,18 33.5,18 c 0.277,0 0.5,0.223 0.5,0.5 m 0,0" style="fill:#695353;fill-opacity:1;stroke:none;fill-rule:nonzero"/>
    <path d="M 15,16.5 C 15,16.777 14.777,17 14.5,17 14.223,17 14,16.777 14,16.5 14,16.223 14.223,16 14.5,16 c 0.277,0 0.5,0.223 0.5,0.5 m 0,0" style="fill:#695353;fill-opacity:1;stroke:none;fill-rule:nonzero"/>
    <path d="M 16,16.5 C 16,16.777 15.777,17 15.5,17 15.223,17 15,16.777 15,16.5 15,16.223 15.223,16 15.5,16 c 0.277,0 0.5,0.223 0.5,0.5 m 0,0" style="fill:#695353;fill-opacity:1;stroke:none;fill-rule:nonzero"/>
    <path d="M 15,17.5 C 15,17.777 14.777,18 14.5,18 14.223,18 14,17.777 14,17.5 14,17.223 14.223,17 14.5,17 c 0.277,0 0.5,0.223 0.5,0.5 m 0,0" style="fill:#695353;fill-opacity:1;stroke:none;fill-rule:nonzero"/>
    <path d="M 16,17.5 C 16,17.777 15.777,18 15.5,18 15.223,18 15,17.777 15,17.5 15,17.223 15.223,17 15.5,17 c 0.277,0 0.5,0.223 0.5,0.5 m 0,0" style="fill:#695353;fill-opacity:1;stroke:none;fill-rule:nonzero"/>
    <path d="M 15,18.5 C 15,18.777 14.777,19 14.5,19 14.223,19 14,18.777 14,18.5 14,18.223 14.223,18 14.5,18 c 0.277,0 0.5,0.223 0.5,0.5 m 0,0" style="fill:#695353;fill-opacity:1;stroke:none;fill-rule:nonzero"/>
    <path d="M 16,18.5 C 16,18.777 15.777,19 15.5,19 15.223,19 15,18.777 15,18.5 15,18.223 15.223,18 15.5,18 c 0.277,0 0.5,0.223 0.5,0.5 m 0,0" style="fill:#695353;fill-opacity:1;stroke:none;fill-rule:nonzero"/>
   </g>
  </g>
 </g>
 <g>
  <path d="m 40.03 7.531 c 3.712 4.084 5.969 9.514 5.969 15.469 0 12.703 -10.297 23 -23 23 c -5.954 0 -11.384 -2.256 -15.469 -5.969 4.178 4.291 10.01 6.969 16.469 6.969 c 12.703 0 23 -10.298 23 -23 0 -6.462 -2.677 -12.291 -6.969 -16.469 z" style="opacity:0.1"/>
 </g>
</svg>
